X: 5686
T: Byron, The
R: strathspey
M: 4/4
K: Amajor
E>A|:c2 c2 B>c d<B|A4 A2 A>G|F>^E F>G A>e c<A|E4 E2 E>A|
c2 c2 B>c d<B|A z a z f>g a<f|e>f e>c B>c d>B|1 A6 e>d:|2 A6 a>g||
|:f>^e f>g a>g a>f|=e>^d e>f e z c z|B>^A B>c d>c d<e|c4 c2 c>B|
A>G A>G A>B A<F|E>^D E>A c>e d>c|B>^A B>c d>B G<B|1 A6 a>g:|2 A6 E>A||

